docs/.gitbook/assets/icon-cloud-sun-16@light.svg

<svg width="32" height="32" viewBox="0 0 16 16" fill="none" xmlns="http://www.w3.org/2000/svg">
<rect x="0" y="0" width="16" height="16" fill="#fff"/>
<path fill-rule="evenodd" clip-rule="evenodd" d="M7.99996 1C8.41417 1 8.74996 1.33579 8.74996 1.75L8.74996 2.25C8.74996 2.66421 8.41417 3 7.99996 3C7.58574 3 7.24996 2.66421 7.24996 2.25L7.24996 1.75C7.24996 1.33579 7.58575 1 7.99996 1ZM4.49996 1.93777C4.85868 1.73066 5.31737 1.85356 5.52448 2.21228L5.77448 2.6453C5.98158 3.00402 5.85868 3.46271 5.49996 3.66982C5.14124 3.87692 4.68255 3.75402 4.47544 3.3953L4.22544 2.96228C4.01833 2.60357 4.14124 2.14487 4.49996 1.93777ZM11.5 1.93788C11.8587 2.14499 11.9816 2.60368 11.7745 2.9624L11.5245 3.39542C11.3174 3.75413 10.8587 3.87704 10.5 3.66993C10.1413 3.46283 10.0184 3.00413 10.2255 2.64542L10.4755 2.2124C10.6826 1.85368 11.1413 1.73078 11.5 1.93788ZM8 5.49989C6.10772 5.49989 4.56593 7.00182 4.50207 8.87821C4.49096 9.20445 4.27012 9.48604 3.95593 9.57459C3.11516 9.81152 2.5 10.5848 2.5 11.4999C2.5 12.6045 3.39543 13.4999 4.5 13.4999H11.5C12.6046 13.4999 13.5 12.6045 13.5 11.4999C13.5 10.5848 12.8848 9.81152 12.0441 9.57459C11.7299 9.48605 11.509 9.20446 11.4979 8.87822C11.4341 7.00182 9.89228 5.49989 8 5.49989ZM3.04653 8.31527C3.38045 5.87755 5.47081 3.99989 8 3.99989C10.5292 3.99989 12.6196 5.87755 12.9535 8.31527C14.1606 8.86709 15 10.0847 15 11.4999C15 13.4329 13.433 14.9999 11.5 14.9999H4.5C2.567 14.9999 1 13.4329 1 11.4999C1 10.0847 1.83942 8.86709 3.04653 8.31527ZM1.93739 4.49989C2.1445 4.14117 2.60319 4.01827 2.96191 4.22537L3.39493 4.47537C3.75365 4.68248 3.87655 5.14117 3.66945 5.49989C3.46234 5.85861 3.00365 5.98152 2.64493 5.77441L2.21191 5.52441C1.85319 5.31731 1.73029 4.85861 1.93739 4.49989ZM14.0621 4.49989C14.2692 4.85861 14.1463 5.31731 13.7875 5.52441L13.3545 5.77441C12.9958 5.98152 12.5371 5.85861 12.33 5.4999C12.1229 5.14118 12.2458 4.68248 12.6045 4.47538L13.0375 4.22538C13.3963 4.01827 13.8549 4.14117 14.0621 4.49989Z" fill="#000"/>
</svg>

<svg xmlns="http://www.w3.org/2000/svg" width="32" height="32" fill="none" viewBox="0 0 16 16"><path fill="#fff" d="M0 0h16v16H0z"/><path fill="#000" fill-rule="evenodd" d="M8 1a.75.75 0 0 1 .75.75v.5a.75.75 0 0 1-1.5 0v-.5A.75.75 0 0 1 8 1m-3.5.938a.75.75 0 0 1 1.024.274l.25.433a.75.75 0 0 1-1.299.75l-.25-.433A.75.75 0 0 1 4.5 1.938m7 0a.75.75 0 0 1 .274 1.024l-.25.433a.75.75 0 1 1-1.298-.75l.25-.433a.75.75 0 0 1 1.024-.274M8 5.5a3.5 3.5 0 0 0-3.498 3.378.75.75 0 0 1-.546.697A2.001 2.001 0 0 0 4.5 13.5h7a2 2 0 0 0 .544-3.925.75.75 0 0 1-.546-.697A3.5 3.5 0 0 0 8 5.5M3.047 8.315a5 5 0 0 1 9.907 0A3.5 3.5 0 0 1 11.5 15h-7a3.5 3.5 0 0 1-1.453-6.685M1.937 4.5a.75.75 0 0 1 1.025-.275l.433.25a.75.75 0 0 1-.75 1.3l-.433-.25A.75.75 0 0 1 1.937 4.5m12.125 0a.75.75 0 0 1-.274 1.024l-.434.25a.75.75 0 1 1-.75-1.299l.434-.25a.75.75 0 0 1 1.024.275" clip-rule="evenodd"/></svg>
